X: 20172
Q: "Mod.o"
M: C
L: 1/8
K: D
d>edA B>de>g | f>ed>A {c}B2Bf/e/ |\
d>ed>A B>de>g | f>ed>B {B}A2A :|
|: g |\
f>ga>f g>fe>g | f>gad {c}B2Bg |\
(f>g)a (f/a/) b>eef | d>e (e/d/).c/.B/ {B}A2A :|


